!!!COM: Sontonga, Enoch Mankayi
!!!CDT: 1860-1904
!!!OTL: National Anthem, Tanzania
!!!ENC: Davis, Matthew J.
!!Vocal Line Only
**kern
*clefG2
*k[b-]
*F:
*M4/4
=1-
8f
8e
8f
8g
4a
4a
=2
8g
8g
4g
2f
=3
8a
8a
8g
8a
4b-
4b-
=4
4a
4a
2g
=5
8f
8f
8f
8g
4a
8a
8a
=6
4g
4b-
2a
=7
2g
2f
=8
8e
8f
4g
2f
=9
4g
4g
4.f
8f
=10
8e
8f
4g
2f
==11
!Chorus
4f
8e
8d
2c
=12
4f
4c
4f
4c
=13
4f
8e
8d
4c
=14
4f
4c
4f
4c
=15
4f
8g
8a
2d
=16
8b-
8a
4g
4.f
8f
=17
8e
8f
4g
2f
==|!
*-
